public/svg/6qzTV0db151b3voDqIUzahjIjqbMjJ9bppmy5RqX.svg

<svg enable-background="new 0 0 512 512" viewBox="0 0 512 512" xmlns="http://www.w3.org/2000/svg" xmlns:xlink="http://www.w3.org/1999/xlink"><linearGradient id="a"><stop offset="0" stop-color="#4cb6ea"/><stop offset="1" stop-color="#5b6ddd"/></linearGradient><linearGradient id="b" gradientUnits="userSpaceOnUse" x1="242.5367" x2="267.5367" xlink:href="#a" y1="-.2215" y2="511.7785"/><linearGradient id="c" gradientUnits="userSpaceOnUse" x1="332.5609" x2="357.5609" xlink:href="#a" y1="-4.6172" y2="507.3828"/><linearGradient id="d" gradientUnits="userSpaceOnUse" x1="102.078" x2="127.078" xlink:href="#a" y1="6.6368" y2="518.6368"/><linearGradient id="e" gradientUnits="userSpaceOnUse" x1="62.1731" x2="87.1731" xlink:href="#a" y1="8.5853" y2="520.5853"/><linearGradient id="f" gradientUnits="userSpaceOnUse" x1="141.9828" x2="166.9828" xlink:href="#a" y1="4.6883" y2="516.6884"/><linearGradient id="g" gradientUnits="userSpaceOnUse" x1="374.456" x2="399.456" xlink:href="#a" y1="-6.6629" y2="505.3371"/><linearGradient id="h" gradientUnits="userSpaceOnUse" x1="244.5837" x2="269.5837" xlink:href="#a" y1="-.3215" y2="511.6785"/><linearGradient id="i" gradientUnits="userSpaceOnUse" x1="134.8642" x2="159.8642" xlink:href="#a" y1="5.0359" y2="517.0359"/><linearGradient id="j" gradientUnits="userSpaceOnUse" x1="73.75" x2="98.75" xlink:href="#a" y1="8.02" y2="520.02"/><linearGradient id="k" gradientUnits="userSpaceOnUse" x1="71.4118" x2="96.4118" xlink:href="#a" y1="8.1342" y2="520.1342"/><path d="m477.1 440.5c19.3 0 34.9-15.7 34.9-34.9v-355.6c0-27.6-22.4-50-50-50h-412c-27.6 0-50 22.4-50 50v355.6c0 19.3 15.7 34.9 34.9 34.9h11.1v51.5h-36c-5.5 0-10 4.5-10 10s4.5 10 10 10h492c5.5 0 10-4.5 10-10s-4.5-10-10-10h-36v-51.5zm-457.1-390.5c0-16.5 13.5-30 30-30h412c16.5 0 30 13.5 30 30v22h-471c-.3 0-.7 0-1 .1zm90 442h-44v-90h44zm112 0h-44v-200.6h44zm112 0h-44v-116h44zm122-235.5h-64c-5.5 0-10 4.5-10 10v50.5c0 5.5 4.5 10 10 10s10-4.5 10-10v-40.5h44v215.5h-44v-107.8c0-5.5-4.5-10-10-10s-10 4.5-10 10v107.8h-28v-126c0-5.5-4.5-10-10-10h-64c-5.5 0-10 4.5-10 10v126h-28v-210.6c0-5.5-4.5-10-10-10h-64c-5.5 0-10 4.5-10 10v210.6h-28v-100c0-5.5-4.5-10-10-10h-64c-5.5 0-10 4.5-10 10v28.5h-11.1c-8.2 0-14.9-6.7-14.9-14.9v-313.7c.3 0 .7.1 1 .1h471v313.6c0 8.2-6.7 14.9-14.9 14.9h-11.1v-154c0-5.5-4.5-10-10-10z" fill="url(#b)"/><path d="m448 36h-225.9c-5.5 0-10 4.5-10 10s4.5 10 10 10h225.9c5.5 0 10-4.5 10-10s-4.5-10-10-10z" fill="url(#c)"/><path d="m111.1 38.9c-1.9-1.9-4.4-2.9-7.1-2.9s-5.2 1.1-7.1 2.9c-1.8 1.9-2.9 4.5-2.9 7.1s1.1 5.2 2.9 7.1c1.9 1.9 4.4 2.9 7.1 2.9s5.2-1.1 7.1-2.9c1.9-1.9 2.9-4.4 2.9-7.1s-1.1-5.2-2.9-7.1z" fill="url(#d)"/><path d="m71.1 38.9c-1.9-1.8-4.5-2.9-7.1-2.9s-5.2 1.1-7.1 2.9c-1.8 1.9-2.9 4.5-2.9 7.1s1.1 5.2 2.9 7.1c1.9 1.9 4.4 2.9 7.1 2.9 2.6 0 5.2-1.1 7.1-2.9 1.9-1.9 2.9-4.4 2.9-7.1s-1.1-5.2-2.9-7.1z" fill="url(#e)"/><path d="m151.1 38.9c-1.9-1.9-4.4-2.9-7.1-2.9-2.6 0-5.2 1.1-7.1 2.9-1.9 1.9-2.9 4.4-2.9 7.1s1.1 5.2 2.9 7.1c1.9 1.9 4.4 2.9 7.1 2.9s5.2-1.1 7.1-2.9c1.9-1.9 2.9-4.4 2.9-7.1s-1.1-5.2-2.9-7.1z" fill="url(#f)"/><path d="m399.1 345.6c-1.9-1.9-4.4-2.9-7.1-2.9s-5.2 1.1-7.1 2.9c-1.9 1.9-2.9 4.4-2.9 7.1s1.1 5.2 2.9 7.1c1.9 1.9 4.4 2.9 7.1 2.9s5.2-1.1 7.1-2.9 2.9-4.4 2.9-7.1-1.1-5.3-2.9-7.1z" fill="url(#g)"/><path d="m424 135.9c-19.9 0-36 16.1-36 36 0 7.9 2.6 15.2 6.9 21.1l-66.4 66.4c-5.2-2.9-11.1-4.5-17.4-4.5-5.7 0-11 1.3-15.8 3.7l-69.4-69.4c2.9-5.2 4.5-11.1 4.5-17.4 0-19.9-16.1-36-36-36s-36 16.1-36 36c0 6.9 2 13.4 5.4 18.9l-59.1 59.1c-5.2-2.9-11.1-4.5-17.4-4.5-19.9 0-36 16.1-36 36s16.1 36 36 36 36-16.1 36-36c0-6.3-1.6-12.2-4.5-17.4l59.8-59.8c4.8 2.3 10.1 3.6 15.8 3.6 6.3 0 12.2-1.6 17.4-4.5l68.7 68.7c-3.4 5.5-5.4 12-5.4 18.9 0 19.9 16.1 36 36 36s36-16.1 36-36c0-6.3-1.6-12.2-4.5-17.4l68.2-68.2c4.1 1.6 8.5 2.5 13.2 2.5 19.9 0 36-16.1 36-36 0-19.6-16.1-35.8-36-35.8zm-336.7 161.5c-8.8 0-16-7.2-16-16s7.2-16 16-16 16 7.2 16 16-7.1 16-16 16zm107.1-109.5c-8.8 0-16-7.2-16-16s7.2-16 16-16 16 7.2 16 16-7.2 16-16 16zm116.7 119.1c-8.8 0-16-7.2-16-16s7.2-16 16-16 16 7.2 16 16-7.2 16-16 16zm112.9-119.1c-8.8 0-16-7.2-16-16s7.2-16 16-16 16 7.2 16 16-7.2 16-16 16z" fill="url(#h)"/><path d="m148.3 129c-1.9-1.9-4.4-2.9-7.1-2.9-2.6 0-5.2 1.1-7.1 2.9-1.9 1.9-2.9 4.4-2.9 7.1s1.1 5.2 2.9 7.1c1.9 1.9 4.4 2.9 7.1 2.9 2.6 0 5.2-1.1 7.1-2.9 1.9-1.9 2.9-4.4 2.9-7.1s-1-5.3-2.9-7.1z" fill="url(#i)"/><path d="m104 126h-48c-5.5 0-10 4.5-10 10s4.5 10 10 10h48c5.5 0 10-4.5 10-10s-4.5-10-10-10z" fill="url(#j)"/><path d="m104 174h-48c-5.5 0-10 4.5-10 10s4.5 10 10 10h48c5.5 0 10-4.5 10-10s-4.5-10-10-10z" fill="url(#k)"/></svg>

<?xml version="1.0" encoding="utf-8"?>
<!-- Generator: Adobe Illustrator 24.0.3, SVG Export Plug-In . SVG Version: 6.00 Build 0)  -->
<svg version="1.1" id="Capa_1" xmlns="http://www.w3.org/2000/svg" xmlns:xlink="http://www.w3.org/1999/xlink" x="0px" y="0px"
	 viewBox="0 0 512 512" style="enable-background:new 0 0 512 512;" xml:space="preserve">
<style type="text/css">
	.st0{fill:url(#SVGID_1_);}
	.st1{fill:url(#SVGID_2_);}
	.st2{fill:url(#SVGID_3_);}
	.st3{fill:url(#SVGID_4_);}
	.st4{fill:url(#SVGID_5_);}
	.st5{fill:url(#SVGID_6_);}
	.st6{fill:url(#SVGID_7_);}
	.st7{fill:url(#SVGID_8_);}
	.st8{fill:url(#SVGID_9_);}
	.st9{fill:url(#SVGID_10_);}
</style>
<g>
	<g>
		<linearGradient id="SVGID_1_" gradientUnits="userSpaceOnUse" x1="242.5367" y1="-0.2215" x2="267.5367" y2="511.7785">
			<stop  offset="0" style="stop-color:#4CB6EA"/>
			<stop  offset="1" style="stop-color:#5B6DDD"/>
		</linearGradient>
		<path class="st0" d="M477.1,440.5c19.3,0,34.9-15.7,34.9-34.9V50c0-27.6-22.4-50-50-50H50C22.4,0,0,22.4,0,50v355.6
			c0,19.3,15.7,34.9,34.9,34.9H46V492H10c-5.5,0-10,4.5-10,10s4.5,10,10,10h492c5.5,0,10-4.5,10-10s-4.5-10-10-10h-36v-51.5H477.1z
			 M20,50c0-16.5,13.5-30,30-30h412c16.5,0,30,13.5,30,30v22H21c-0.3,0-0.7,0-1,0.1V50z M110,492H66v-90h44V492z M222,492h-44V291.4
			h44V492z M334,492h-44V376h44V492z M456,256.5h-64c-5.5,0-10,4.5-10,10V317c0,5.5,4.5,10,10,10s10-4.5,10-10v-40.5h44V492h-44
			V384.2c0-5.5-4.5-10-10-10s-10,4.5-10,10V492h-28V366c0-5.5-4.5-10-10-10h-64c-5.5,0-10,4.5-10,10v126h-28V281.4
			c0-5.5-4.5-10-10-10h-64c-5.5,0-10,4.5-10,10V492h-28V392c0-5.5-4.5-10-10-10H56c-5.5,0-10,4.5-10,10v28.5H34.9
			c-8.2,0-14.9-6.7-14.9-14.9V91.9c0.3,0,0.7,0.1,1,0.1h471v313.6c0,8.2-6.7,14.9-14.9,14.9H466v-154C466,261,461.5,256.5,456,256.5
			z"/>
	</g>
</g>
<g>
	<g>
		<linearGradient id="SVGID_2_" gradientUnits="userSpaceOnUse" x1="332.5609" y1="-4.6172" x2="357.5609" y2="507.3828">
			<stop  offset="0" style="stop-color:#4CB6EA"/>
			<stop  offset="1" style="stop-color:#5B6DDD"/>
		</linearGradient>
		<path class="st1" d="M448,36H222.1c-5.5,0-10,4.5-10,10s4.5,10,10,10H448c5.5,0,10-4.5,10-10S453.5,36,448,36z"/>
	</g>
</g>
<g>
	<g>
		<linearGradient id="SVGID_3_" gradientUnits="userSpaceOnUse" x1="102.078" y1="6.6368" x2="127.078" y2="518.6368">
			<stop  offset="0" style="stop-color:#4CB6EA"/>
			<stop  offset="1" style="stop-color:#5B6DDD"/>
		</linearGradient>
		<path class="st2" d="M111.1,38.9c-1.9-1.9-4.4-2.9-7.1-2.9s-5.2,1.1-7.1,2.9C95.1,40.8,94,43.4,94,46s1.1,5.2,2.9,7.1
			c1.9,1.9,4.4,2.9,7.1,2.9s5.2-1.1,7.1-2.9c1.9-1.9,2.9-4.4,2.9-7.1S112.9,40.8,111.1,38.9z"/>
	</g>
</g>
<g>
	<g>
		<linearGradient id="SVGID_4_" gradientUnits="userSpaceOnUse" x1="62.1731" y1="8.5853" x2="87.1731" y2="520.5853">
			<stop  offset="0" style="stop-color:#4CB6EA"/>
			<stop  offset="1" style="stop-color:#5B6DDD"/>
		</linearGradient>
		<path class="st3" d="M71.1,38.9C69.2,37.1,66.6,36,64,36s-5.2,1.1-7.1,2.9C55.1,40.8,54,43.4,54,46s1.1,5.2,2.9,7.1
			c1.9,1.9,4.4,2.9,7.1,2.9c2.6,0,5.2-1.1,7.1-2.9c1.9-1.9,2.9-4.4,2.9-7.1S72.9,40.8,71.1,38.9z"/>
	</g>
</g>
<g>
	<g>
		<linearGradient id="SVGID_5_" gradientUnits="userSpaceOnUse" x1="141.9828" y1="4.6883" x2="166.9828" y2="516.6884">
			<stop  offset="0" style="stop-color:#4CB6EA"/>
			<stop  offset="1" style="stop-color:#5B6DDD"/>
		</linearGradient>
		<path class="st4" d="M151.1,38.9c-1.9-1.9-4.4-2.9-7.1-2.9c-2.6,0-5.2,1.1-7.1,2.9c-1.9,1.9-2.9,4.4-2.9,7.1s1.1,5.2,2.9,7.1
			c1.9,1.9,4.4,2.9,7.1,2.9s5.2-1.1,7.1-2.9c1.9-1.9,2.9-4.4,2.9-7.1S152.9,40.8,151.1,38.9z"/>
	</g>
</g>
<g>
	<g>
		<linearGradient id="SVGID_6_" gradientUnits="userSpaceOnUse" x1="374.456" y1="-6.6629" x2="399.456" y2="505.3371">
			<stop  offset="0" style="stop-color:#4CB6EA"/>
			<stop  offset="1" style="stop-color:#5B6DDD"/>
		</linearGradient>
		<path class="st5" d="M399.1,345.6c-1.9-1.9-4.4-2.9-7.1-2.9s-5.2,1.1-7.1,2.9c-1.9,1.9-2.9,4.4-2.9,7.1s1.1,5.2,2.9,7.1
			c1.9,1.9,4.4,2.9,7.1,2.9s5.2-1.1,7.1-2.9s2.9-4.4,2.9-7.1C402,350,400.9,347.4,399.1,345.6z"/>
	</g>
</g>
<g>
	<g>
		<linearGradient id="SVGID_7_" gradientUnits="userSpaceOnUse" x1="244.5837" y1="-0.3215" x2="269.5837" y2="511.6785">
			<stop  offset="0" style="stop-color:#4CB6EA"/>
			<stop  offset="1" style="stop-color:#5B6DDD"/>
		</linearGradient>
		<path class="st6" d="M424,135.9c-19.9,0-36,16.1-36,36c0,7.9,2.6,15.2,6.9,21.1l-66.4,66.4c-5.2-2.9-11.1-4.5-17.4-4.5
			c-5.7,0-11,1.3-15.8,3.7l-69.4-69.4c2.9-5.2,4.5-11.1,4.5-17.4c0-19.9-16.1-36-36-36s-36,16.1-36,36c0,6.9,2,13.4,5.4,18.9
			l-59.1,59.1c-5.2-2.9-11.1-4.5-17.4-4.5c-19.9,0-36,16.1-36,36s16.1,36,36,36s36-16.1,36-36c0-6.3-1.6-12.2-4.5-17.4l59.8-59.8
			c4.8,2.3,10.1,3.6,15.8,3.6c6.3,0,12.2-1.6,17.4-4.5l68.7,68.7c-3.4,5.5-5.4,12-5.4,18.9c0,19.9,16.1,36,36,36s36-16.1,36-36
			c0-6.3-1.6-12.2-4.5-17.4l68.2-68.2c4.1,1.6,8.5,2.5,13.2,2.5c19.9,0,36-16.1,36-36C460,152.1,443.9,135.9,424,135.9z M87.3,297.4
			c-8.8,0-16-7.2-16-16s7.2-16,16-16s16,7.2,16,16S96.2,297.4,87.3,297.4z M194.4,187.9c-8.8,0-16-7.2-16-16s7.2-16,16-16
			s16,7.2,16,16S203.2,187.9,194.4,187.9z M311.1,307c-8.8,0-16-7.2-16-16s7.2-16,16-16s16,7.2,16,16
			C327.1,299.8,319.9,307,311.1,307z M424,187.9c-8.8,0-16-7.2-16-16s7.2-16,16-16s16,7.2,16,16S432.8,187.9,424,187.9z"/>
	</g>
</g>
<g>
	<g>
		<linearGradient id="SVGID_8_" gradientUnits="userSpaceOnUse" x1="134.8642" y1="5.0359" x2="159.8642" y2="517.0359">
			<stop  offset="0" style="stop-color:#4CB6EA"/>
			<stop  offset="1" style="stop-color:#5B6DDD"/>
		</linearGradient>
		<path class="st7" d="M148.3,129c-1.9-1.9-4.4-2.9-7.1-2.9c-2.6,0-5.2,1.1-7.1,2.9c-1.9,1.9-2.9,4.4-2.9,7.1s1.1,5.2,2.9,7.1
			c1.9,1.9,4.4,2.9,7.1,2.9c2.6,0,5.2-1.1,7.1-2.9c1.9-1.9,2.9-4.4,2.9-7.1S150.2,130.8,148.3,129z"/>
	</g>
</g>
<g>
	<g>
		<linearGradient id="SVGID_9_" gradientUnits="userSpaceOnUse" x1="73.75" y1="8.02" x2="98.75" y2="520.02">
			<stop  offset="0" style="stop-color:#4CB6EA"/>
			<stop  offset="1" style="stop-color:#5B6DDD"/>
		</linearGradient>
		<path class="st8" d="M104,126H56c-5.5,0-10,4.5-10,10c0,5.5,4.5,10,10,10h48c5.5,0,10-4.5,10-10S109.5,126,104,126z"/>
	</g>
</g>
<g>
	<g>
		<linearGradient id="SVGID_10_" gradientUnits="userSpaceOnUse" x1="71.4118" y1="8.1342" x2="96.4118" y2="520.1342">
			<stop  offset="0" style="stop-color:#4CB6EA"/>
			<stop  offset="1" style="stop-color:#5B6DDD"/>
		</linearGradient>
		<path class="st9" d="M104,174H56c-5.5,0-10,4.5-10,10s4.5,10,10,10h48c5.5,0,10-4.5,10-10S109.5,174,104,174z"/>
	</g>
</g>
</svg>
